manual-assets/server/deepin-terminal/zh_CN/icon/F4.svg

<?xml version="1.0" encoding="iso-8859-1"?>
<!-- Generator: Adobe Illustrator 18.0.0, SVG Export Plug-In . SVG Version: 6.00 Build 0)  -->
<!DOCTYPE svg PUBLIC "-//W3C//DTD SVG 1.1//EN" "http://www.w3.org/Graphics/SVG/1.1/DTD/svg11.dtd">
<svg version="1.1" id="&#x56FE;&#x5C42;_1" xmlns="http://www.w3.org/2000/svg" xmlns:xlink="http://www.w3.org/1999/xlink" x="0px"
	 y="0px" viewBox="0 0 20 20" enable-background="new 0 0 20 20" xml:space="preserve">
<g>
	<path opacity="0.1" fill="#FFFFFF" d="M15.7,19.5H4.3c-2.09,0-3.8-1.71-3.8-3.8V4.3c0-2.09,1.71-3.8,3.8-3.8h11.4
		c2.09,0,3.8,1.71,3.8,3.8v11.4C19.5,17.79,17.79,19.5,15.7,19.5z"/>
	<path fill="none" stroke="#CBCBCB" stroke-miterlimit="10" d="M15.5,19.5h-11c-2.209,0-4-1.791-4-4v-11c0-2.209,1.791-4,4-4h11
		c2.209,0,4,1.791,4,4v11C19.5,17.709,17.709,19.5,15.5,19.5z"/>
	<g>
		<path d="M10,6H6v3h3v1H6v4H5V5h5V6z"/>
	</g>
	<path d="M15,11V5h-0.957L11,10.98V12h3v2h1v-2h1v-1H15z M14,11h-2l2-4V11z"/>
</g>
</svg>

<?xml version="1.0" encoding="UTF-8"?>
<svg width="20px" height="20px" viewBox="0 0 20 20" version="1.1" xmlns="http://www.w3.org/2000/svg" xmlns:xlink="http://www.w3.org/1999/xlink">
    <!-- Generator: Sketch 64 (93537) - https://sketch.com -->
    <title>F4</title>
    <desc>Created with Sketch.</desc>
    <g id="页面-1" stroke="none" stroke-width="1" fill="none" fill-rule="evenodd">
        <g id="F4">
            <path d="M15.7,19.5 L4.3,19.5 C2.21,19.5 0.5,17.79 0.5,15.7 L0.5,4.3 C0.5,2.21 2.21,0.5 4.3,0.5 L15.7,0.5 C17.79,0.5 19.5,2.21 19.5,4.3 L19.5,15.7 C19.5,17.79 17.79,19.5 15.7,19.5 Z" id="路径" fill="#FFFFFF" fill-rule="nonzero"></path>
            <path d="M15.5,19.5 L4.5,19.5 C2.291,19.5 0.5,17.709 0.5,15.5 L0.5,4.5 C0.5,2.291 2.291,0.5 4.5,0.5 L15.5,0.5 C17.709,0.5 19.5,2.291 19.5,4.5 L19.5,15.5 C19.5,17.709 17.709,19.5 15.5,19.5 Z" id="路径" stroke="#CBCBCB"></path>
            <polygon id="路径" fill="#000000" fill-rule="nonzero" points="10 6 6 6 6 9 9 9 9 10 6 10 6 14 5 14 5 5 10 5"></polygon>
            <path d="M15,11 L15,5 L14.043,5 L11,10.98 L11,12 L14,12 L14,14 L15,14 L15,12 L16,12 L16,11 L15,11 Z M14,11 L12,11 L14,7 L14,11 Z" id="形状" fill="#000000" fill-rule="nonzero"></path>
        </g>
    </g>
</svg>
